X:1
T: Loch Builg
C:Alexander Walker
R:Reel
Q: 232
K:Eb
M:4/4
L:1/8
|:c|B2 G1/2F1/2E CE B,E|CE B,E GF Fc|B2 G1/2F1/2E CE B,G|Ac Bd eE Ec|
B2 G1/2F1/2E CE B,E|CE B,E GF Fc|B2 G1/2F1/2E CE B,G|Ac Bd eE Ed|
eB gB bB gB|dB fB gB fB|eB gB bB gB|Ac Bd eE Ed|
eB gB bB gB|dB fB gB fB|eg df ce BG|Ac Bd eE E:|
